icons/git-pull-request-16.svg

<svg width="16" height="16" viewBox="0 0 16 16" xmlns="http://www.w3.org/2000/svg">
  <path fill-rule="evenodd" clip-rule="evenodd" d="M7.17674 3.07322L9.57318 0.676753C9.73068 0.51926 9.99996 0.630802 9.99996 0.853529V5.64642C9.99996 5.86915 9.73068 5.98069 9.57319 5.8232L7.17674 3.42677C7.07911 3.32914 7.07911 3.17085 7.17674 3.07322ZM3.75 2.5C3.33579 2.5 3 2.83579 3 3.25C3 3.66421 3.33579 4 3.75 4C4.16421 4 4.5 3.66421 4.5 3.25C4.5 2.83579 4.16421 2.5 3.75 2.5ZM1.5 3.25C1.5 2.00736 2.50736 1 3.75 1C4.99264 1 6 2.00736 6 3.25C6 4.22966 5.37389 5.06309 4.5 5.37197V10.628C5.37389 10.9369 6 11.7703 6 12.75C6 13.9926 4.99264 15 3.75 15C2.50736 15 1.5 13.9926 1.5 12.75C1.5 11.7703 2.12611 10.9369 3 10.628V5.37197C2.12611 5.06309 1.5 4.22966 1.5 3.25ZM11 2.5H10V4H11C11.5523 4 12 4.44772 12 5V10.628C11.1261 10.9369 10.5 11.7703 10.5 12.75C10.5 13.9926 11.5074 15 12.75 15C13.9926 15 15 13.9926 15 12.75C15 11.7703 14.3739 10.9369 13.5 10.628V5C13.5 3.61929 12.3807 2.5 11 2.5ZM12 12.75C12 12.3358 12.3358 12 12.75 12C13.1642 12 13.5 12.3358 13.5 12.75C13.5 13.1642 13.1642 13.5 12.75 13.5C12.3358 13.5 12 13.1642 12 12.75ZM3.75 12C3.33579 12 3 12.3358 3 12.75C3 13.1642 3.33579 13.5 3.75 13.5C4.16421 13.5 4.5 13.1642 4.5 12.75C4.5 12.3358 4.16421 12 3.75 12Z"/>
</svg>

<svg xmlns="http://www.w3.org/2000/svg" width="16" height="16" viewBox="0 0 16 16"><path fill-rule="evenodd" d="M7.177 3.073L9.573.677A.25.25 0 0110 .854v4.792a.25.25 0 01-.427.177L7.177 3.427a.25.25 0 010-.354zM3.75 2.5a.75.75 0 100 1.5.75.75 0 000-1.5zm-2.25.75a2.25 2.25 0 113 2.122v5.256a2.251 2.251 0 11-1.5 0V5.372A2.25 2.25 0 011.5 3.25zM11 2.5h-1V4h1a1 1 0 011 1v5.628a2.251 2.251 0 101.5 0V5A2.5 2.5 0 0011 2.5zm1 10.25a.75.75 0 111.5 0 .75.75 0 01-1.5 0zM3.75 12a.75.75 0 100 1.5.75.75 0 000-1.5z"/></svg>
